X:1
T:Title
%%score { ( 1 4 ) | ( 2 3 ) }
L:1/8
M:4/4
K:G
V:1 treble nm="Grand Piano"
V:4 treble 
V:2 treble 
V:3 treble 
V:1
 z8[Q:1/4=92] | z [B,G] G>G GB A>G | z G G>C .E2 z2 | z [B,D] z z/ C/ B,d e>d | A6 z2 | B4 z4 | %6
 z G G>C Ee f>e | d6 z2 | z G3- G z z2 | A4 z4 | z2 z z/ G/ z4 | z G z z/ G/ cG A>B | %12
 z B D->[B,DG] .[DB]2 z2 | z [DG] [DG]>[DG] [DG]G (3ABG | z G z z/ D/ Ce f>e | d6 z2 | %16
[M:5/8] G-G- G3 |[M:3/8] de>^d |[M:4/4] d6 z2 | z G z z/ D/ CG/G/ AB | D2[K:bass] D4 z2 | %21
 z[K:treble] [A,F] [^CE]>[EG] [DF]d e>d | B6 z2 | z G z z/ D/ Ce/e/ fe | d6 z2 |[M:5/8] G-G- G3 |] %26
V:2
 z4 z d e>^d | d6[K:bass] z2 | z [C,C] [E,C]>G,[K:treble] CG A>B | %3
 D[K:bass]G,, [B,,B,]>[D,A,] .G,2 z2 | z [F,A,][F,A,][A,^C] .[D,D]2 z2 | %5
 z G,, [B,,G,]>[D,B,] .[G,D]2 z2 | z [C,C] [E,C]>G, .C2 z2 | %7
 z [D,B,] [G,B,]>[B,D] [D,B,][D,D] [D,C]>[D,D] | z B, D>C .B,2 z2 | %9
 z [D,F,] [D,A,]>D, [D,F,][K:treble]F E>D | B,4 z4 | z [C,C] [C,G,]>[C,G,] .[C,G,]2 z2 | %12
 z [G,,G,] G,,>D,, G,,[K:treble]d e>d | B6[K:bass] z2 | z [C,C] [C,C]>[C,C] .[C,G,]2 z2 | %15
 z [D,B,] [D,A,]>[D,G,] [D,F,][D,D] [D,C]>[D,D] |[M:5/8] z B,C>CB, |[M:3/8] z3 | %18
[M:4/4] z [G,B,] [G,D]>[G,C] .[G,B,]2 z2 | z [C,C] [C,C]>[C,C] .[C,G,]2 z2 | %20
 z [G,,G,]/[G,,G,]/ G,,>G,, G,,[K:treble]d e>d | A6[K:bass] z2 | z [G,D] [G,D]>[G,D] .[G,D]2 z2 | %23
 z [C,C] [C,C]>[C,C] .[C,G,]2 z2 | z [D,B,]/[D,B,]/ [D,A,]>[D,G,] [D,F,][D,D] [D,C]>[D,D] | %25
[M:5/8] z B,C>CB, |] %26
V:3
 x8 | z[K:bass] G,, [B,,B,]>[D,B,] .[G,B,]2 z2 | x4[K:treble] x4 | x[K:bass] x7 | x8 | x8 | x8 | %7
 x8 | G,,6 z2 | x5[K:treble] x3 | z G,, G,,>G,, .G,,2 z2 | x8 | x5[K:treble] x3 | %13
 z[K:bass] [G,,G,] [G,,G,]>[G,,G,] .[G,,G,]2 z2 | x8 | x8 |[M:5/8] G,,-G,,- G,,3 |[M:3/8] x3 | %18
[M:4/4] x8 | x8 | x5[K:treble] x3 | z[K:bass] D, A,,>A,, .D,2 z2 | x8 | x8 | x8 | %25
[M:5/8] G,,-G,,- G,,3 |] %26
V:4
 x8 | x8 | E4 z4 | z2 D4 z2 | z DDE Fd e>d | z [DG] D>G BG (3ABG | E4 z4 | z G G>G GB A>B | %8
 .[B,G]2 F>E DA B>_B | z d F>F, .[Ac]2 z2 | z [G,G] [G,D]>B,- [B,DB]B A>G | E2 E4 z2 | D2 B,2 z4 | %13
 x8 | E2 E4 z2 | z G F>E DB A>B |[M:5/8] B,DE>ED |[M:3/8] x3 |[M:4/4] z G B>A GB A>G | E2 E4 z2 | %20
 z[K:bass] B,/B,/ B,>[A,C] .[G,B,]2 z2 | x[K:treble] x7 | z G G>G GG (3ABG | E2 E4 z2 | %24
 z G/G/ F>E DB A>B |[M:5/8] B,DE>ED |] %26

